X:1
T:Polly Williams
M:3/4
L:1/4
K:G
D/2-E/2| G A A|
M:4/4
 B d2 e|
M:3/4
 d B G| A2D/2-E/2| G A c|
M:4/4
 B- A2 B/2A/2|
M:3/4
 G D E| D2 D/2E/2| G A A|
M:4/4
 B d2 e/2e/2|
M:3/4
 d B G| A2 D/2E/2| G A c|
M:4/4
 B- A2B/2-A/2|
M:3/4
 G D E| D2||
